X: 9
T: Still, Still, Still
M: 4/4
K: A
L: 1/4
V: 1 name="Vln I" snm="" clef=treble
% V: 1 name="Vla I" snm="" clef=alto middle=c
%%MIDI channel 1
%%MIDI program 40
"A" (ue a) (c e) | "F#m" A3 (uA/c/) | "Bm" B (B/d/) "E7" G (G/B/) | "A" A3 z |
"A" (ue a) (c e) | "F#m" A3 (uA/c/) | "Bm" B (B/d/) "E7" G (G/B/) | "A" A3 uc |
"E7" uB (B/c/) d B | "A" c (c/d/) e uc | "E7" B (B/c/) d B | "A" c (c/d/) e c |
"A" (ue a) (c e) | "F#m" A3 (A/c/)  | "Bm" B (B/d/) "E7" G (G/B/) | "A" A3 z |]
% V: 2 name="Vla II" snm="" clef=alto middle=c
V: 2 name="Vln II" snm="" clef=treble
L: 1/4
%%MIDI channel 1
%%MIDI program 40
uc2 A2 | F3 (uF/E/) | D (D/F/) E (E/D/) | C3 z |
uc2 (A G) | (F E) (D C) | D (D/F/) E (E/D/) | C3 uA |
uG (G/A/) B G | A (A/B/) c uA | G (G/A/) B G | A (A/B/) c A |
uc2 (A G) | (F E) (D C) | D (D/F/) E (E/D/) | C3 z |]


